public/images/Rewards.svg

<svg fill="none" height="45" viewBox="0 0 122 45" width="122" xmlns="http://www.w3.org/2000/svg"><g fill="#fff"><path d="m118.32 32.1612c-2.306-2.1525-3.071-2.0377-3.481-1.6155-.627.6755 1.429 1.6786 2.69 2.3196 1.315.6689 3.564 2.036 3.847 4.9249s-.691 6.2871-5.862 6.7816c-5.143.4664-7.701-3.7334-7.701-3.7334l3.571-4.0804s2.143 2.4898 2.907 1.898c.71-.5916.407-1.0956-2.856-3.0204-2.577-1.5063-3.49-4.5894-2.73-6.556.732-1.9945 2.449-4.2168 6.801-4.1194 4.378.1254 6.44 3.1204 6.44 3.1204z"/><path d="m98.8115 25.2978c2.2175.245 8.7105 2.5236 8.1335 10.1851-.523 7.6051-6.076 8.3815-8.4277 8.8384-2.4339.4853-8.2633.3087-8.2633.3087l-.3644-19.5824s6.7592-.023 8.9219.2502zm1.9745 9.729c.184-2.3293-1.6517-2.9964-2.254-3.0786-.6023-.0821-2.4905-.0757-2.4905-.0757l.1286 5.8915s1.5875.1069 2.2984-.0639c.629-.1424 2.1885-.3441 2.3175-2.6733z"/><path d="m86.5688 28.566c1.4612 3.3618.3479 6.059-1.6174 7.5808l3.7757 8.2639-6.2658.2458-3.0317-6.6392.0764 6.7053-5.6647-.0368-.3085-19.2459s10.8032-1.8604 13.036 3.1261zm-4.9171 2.6821c.0216-1.7677-2.4116-1.058-2.4116-1.058l.0618 2.1882s2.3281.6094 2.3498-1.1302z"/><path d="m67.5176 25.2357 5.1804 19.5099-6.1572.0209-1.1092-4.5133-2.5449.0086-.9705 4.5205-6.1298.0208 4.8896-19.6564zm-4.4255 10.845 2.0797-.0071-.7537-4.5988-.5473.0019z"/><path d="m29.6924 25.2522 6.4307-.0219 2.1926 9.5038 1.1334-4.9418 5.7733-.2441 1.44 5.2698 2.1307-9.6307 6.5676-.0224-5.1084 19.6571-6.896.0235-.7484-2.9434-.7293 2.9484-7.0875.0241z"/><path d="m22.4287 39.0246 6.3213-.0215.0464 5.8918-11.849.0403-.2003-19.6391 11.9585-.0406-.2295 5.1913-5.9652.1325-.023 1.3468 4.8439.0957.0174 5.3869-4.9252.157z"/><path d="m13.4262 28.8145c1.4612 3.3618.348 6.0591-1.6174 7.5808l3.7758 8.2639-6.26589.2458-3.03165-6.6391.07642 6.7053-5.664733-.0369-.308536-19.2459s10.803289-1.8604 13.035989 3.1261zm-4.91709 2.6821c.02165-1.7676-2.41156-1.0579-2.41156-1.0579l.06181 2.1882s2.32801.6093 2.34975-1.1303z"/></g><path d="m30.7277 6.22363s2.2976-4.42745 7.2652-4.94808c4.9677-.520627 8.8719 1.82219 10.1726 5.2084 1.3027 3.3862 2.3724 8.59465-1.5484 12.23895-3.9188 3.6466-11.9581 4.052-15.0965.0961-3.1383-3.956-2.1602-10.25041-.795-12.59537" fill="#ed1c24"/><path d="m46.4714 14.0009c-.0146-.0021-1.5067-.3371-3.1279-1.2482-.4995-.2795-.9137-.4353-1.2508-.5164.4245-.2838.8179-.7062 1.1862-1.2717.6098-.9324 1.5193-2.29373 1.5193-2.29373.027-.04267.027-.09388-.0042-.13442-.0291-.04054-.0812-.05974-.1332-.04908-1.0967.23898-2.1831 1.01565-2.976 1.58113-.3413.2453-.6368.4544-.7929.5163-.0291.0107-.05.015-.0687.015-.1665-1.0221-.2185-2.10816.2414-3.27743.5807-1.47227-.3746-2.96373-.4162-3.02775-.0312-.04907-.0937-.06827-.1519-.0512-.0562.0192-.0916.07254-.0854.13015.0021.01494.1769 1.44239-1.1279 3.27099-.5911.82788-.8054 1.74964-.8554 2.53914-.4703-.56332-1.0135-.93672-1.7169-1.20557-1.13-.43314-2.4307-1.57042-2.4453-1.58108-.0437-.03628-.1062-.04268-.154-.01494-.0479.02774-.0729.08321-.0562.13656.0229.07468.5848 1.85633 1.6711 2.56473.5786.3777 1.0115 1.0455 1.2758 1.5533-.4683.1494-1.1488.4673-1.7024 1.1245-.7346.8748-3.0905 1.2696-3.1134 1.276-.0582.0106-.104.0576-.1061.1152s.0375.1067.0957.1216c2.129.51 4.7825-.7169 4.8824-.766.2622-.0917.4599-.0683.5931.0747.2497.2688.231.9025-.0396 1.3848-.4162.7425-.489 2.2532-.2747 2.5498.0562.0768.1249.0896.1644.0896h.0188c.1685-.0171.2143-.1131.2684-.2219.077-.1579.2373-.4887.9345-1.1522.5619-.5335.7783-1.0328.8491-1.4168.2372.3179.6285.655 1.2653.8492 1.257.3841 1.4172.8321 1.4193.8321.0146.0534.0666.0897.1249.0897.0083 0 .0166 0 .027-.0022.0666-.0128.1103-.0747.0999-.1387-.0125-.064-.2913-1.5661-1.0509-2.219-.0812-.0704-.1561-.1366-.229-.2027.3559.081.7992.1899 1.3424.3456.5515.1579 1.1071.2155 1.6191.2155 1.2466 0 2.2351-.335 2.2934-.3542.052-.0192.0874-.0682.0832-.1216-.0041-.0533-.0437-.0981-.0978-.1109" fill="#50b848"/><path d="m16.1579 7.35028 3.4588.12589v14.08253l5.8854.096.2435-14.17853 3.2154-.12589v-5.97226l-12.9842-.18564z" fill="#fff"/><path d="m61.4203 1.15405.2518 7.50214-3.4671-7.33997-7.1591-.16217.206 20.43455 6.4682.0662-.3288-8.8293 4.2808 8.8293 6.0665-.6231v-19.87765z" fill="#fff"/><path d="m70.2253 1.15405.1832 20.50075h12.3161l-.0541-6.1536h-6.5597l.0229-1.5299 5.105-.1515v-5.59888l-5.0239-.09815.0187-1.39332 6.2497-.12589.1873-5.44951z" fill="#fff"/><path d="m93.7151 7.52958c-.0416 1.79659-2.4661 1.15861-2.4661 1.15861l-.0708-2.31722s2.5785-.69985 2.5369 1.15648m5.1695-2.85064c-2.3059-5.287351-13.7042-3.35847-13.7042-3.35847l.2373 20.33856 6.0061-.2454-.102-6.7788 3.1946 7.0242 6.6156-.2454-3.9289-8.7055c2.0312-1.6238 3.2419-4.45309 1.6836-8.02706" fill="#fff"/><path d="m106.289 4.91152v-3.63371l-5.434-.12376v5.91039l2.666-.09175c.219 1.10313-.589 2.03343-.589 2.03343l.629.77027c2.141-1.09246 2.71-2.74822 2.722-4.52774l.004-.33713z" fill="#fff"/><path d="m11.2443 8.65612 3.8106-4.3037s-2.1602-3.21338-6.79491-3.3478c-4.63675-.136561-6.48063 2.2532-7.279782 4.34211-.801233 2.09104.160252 5.40467 2.876122 6.99217 3.49004 2.0398 3.8147 2.601 3.02179 3.2219-.7929.6209-3.03844-2.0526-3.03844-2.0526l-3.83968 4.3549s2.72836 4.4744 8.18923 3.9794 6.55137-4.1032 6.26207-7.1629c-.2913-3.0597-2.695-4.5534-4.054-5.25108-1.35897-.69772-3.55872-1.80512-2.86779-2.51351.42455-.43528 1.22995-.56117 3.71899 1.74111" fill="#fff"/><path d="m117.919 8.65612 3.81-4.3037s-2.16-3.21338-6.795-3.3478c-4.634-.136561-6.48 2.2532-7.279 4.34211-.802 2.09104.16 5.40467 2.876 6.99217 3.49 2.0398 3.814 2.601 3.021 3.2219-.792.6209-3.038-2.0526-3.038-2.0526l-3.84 4.3549s2.729 4.4744 8.19 3.9794c5.46-.495 6.551-4.1032 6.262-7.1629-.292-3.0597-2.695-4.5534-4.054-5.25108-1.359-.69772-3.559-1.80512-2.868-2.51351.424-.43528 1.23-.56117 3.719 1.74111" fill="#fff"/></svg>

<svg width="122" height="45" viewBox="0 0 122 45" fill="none" xmlns="http://www.w3.org/2000/svg">
<path d="M118.32 32.1612C116.014 30.0087 115.249 30.1235 114.839 30.5457C114.212 31.2212 116.268 32.2243 117.529 32.8653C118.844 33.5342 121.093 34.9013 121.376 37.7902C121.659 40.6791 120.685 44.0773 115.514 44.5718C110.371 45.0382 107.813 40.8384 107.813 40.8384L111.384 36.758C111.384 36.758 113.527 39.2478 114.291 38.656C115.001 38.0644 114.698 37.5604 111.435 35.6356C108.858 34.1293 107.945 31.0462 108.705 29.0796C109.437 27.0851 111.154 24.8628 115.506 24.9602C119.884 25.0856 121.946 28.0806 121.946 28.0806L118.32 32.1612Z" fill="white"/>
<path d="M98.8115 25.2978C101.029 25.5428 107.522 27.8214 106.945 35.4829C106.422 43.088 100.869 43.8644 98.5173 44.3213C96.0834 44.8066 90.254 44.63 90.254 44.63L89.8896 25.0476C89.8896 25.0476 96.6488 25.0246 98.8115 25.2978ZM100.786 35.0268C100.97 32.6975 99.1343 32.0304 98.532 31.9482C97.9297 31.8661 96.0415 31.8725 96.0415 31.8725L96.1701 37.764C96.1701 37.764 97.7576 37.8709 98.4685 37.7001C99.0975 37.5577 100.657 37.356 100.786 35.0268Z" fill="white"/>
<path d="M86.5688 28.566C88.03 31.9278 86.9167 34.625 84.9514 36.1468L88.7271 44.4107L82.4613 44.6565L79.4296 38.0173L79.506 44.7226L73.8413 44.6858L73.5328 25.4399C73.5328 25.4399 84.336 23.5795 86.5688 28.566ZM81.6517 31.2481C81.6733 29.4804 79.2401 30.1901 79.2401 30.1901L79.3019 32.3783C79.3019 32.3783 81.63 32.9877 81.6517 31.2481Z" fill="white"/>
<path d="M67.5176 25.2357L72.698 44.7456L66.5408 44.7665L65.4316 40.2532L62.8867 40.2618L61.9162 44.7823L55.7864 44.8031L60.676 25.1467L67.5176 25.2357ZM63.0921 36.0807L65.1718 36.0736L64.4181 31.4748L63.8708 31.4767L63.0921 36.0807Z" fill="white"/>
<path d="M29.6924 25.2522L36.1231 25.2303L38.3157 34.7341L39.4491 29.7923L45.2224 29.5482L46.6624 34.818L48.7931 25.1873L55.3607 25.1649L50.2523 44.822L43.3563 44.8455L42.6079 41.9021L41.8786 44.8505L34.7911 44.8746L29.6924 25.2522Z" fill="white"/>
<path d="M22.4287 39.0246L28.75 39.0031L28.7964 44.8949L16.9474 44.9352L16.7471 25.2961L28.7056 25.2555L28.4761 30.4468L22.5109 30.5793L22.4879 31.9261L27.3318 32.0218L27.3492 37.4087L22.424 37.5657L22.4287 39.0246Z" fill="white"/>
<path d="M13.4262 28.8145C14.8874 32.1763 13.7742 34.8736 11.8088 36.3953L15.5846 44.6592L9.31871 44.905L6.28706 38.2659L6.36348 44.9712L0.698747 44.9343L0.390211 25.6884C0.390211 25.6884 11.1935 23.828 13.4262 28.8145ZM8.50911 31.4966C8.53076 29.729 6.09755 30.4387 6.09755 30.4387L6.15936 32.6269C6.15936 32.6269 8.48737 33.2362 8.50911 31.4966Z" fill="white"/>
<path d="M30.7277 6.22363C30.7277 6.22363 33.0253 1.79618 37.9929 1.27555C42.9606 0.754923 46.8648 3.09774 48.1655 6.48395C49.4682 9.87015 50.5379 15.0786 46.6171 18.7229C42.6983 22.3695 34.659 22.7749 31.5206 18.819C28.3823 14.863 29.3604 8.56859 30.7256 6.22363" fill="#ED1C24"/>
<path d="M46.4714 14.0009C46.4568 13.9988 44.9647 13.6638 43.3435 12.7527C42.844 12.4732 42.4298 12.3174 42.0927 12.2363C42.5172 11.9525 42.9106 11.5301 43.2789 10.9646C43.8887 10.0322 44.7982 8.67087 44.7982 8.67087C44.8252 8.6282 44.8252 8.57699 44.794 8.53645C44.7649 8.49591 44.7128 8.47671 44.6608 8.48737C43.5641 8.72635 42.4777 9.50302 41.6848 10.0685C41.3435 10.3138 41.048 10.5229 40.8919 10.5848C40.8628 10.5955 40.8419 10.5998 40.8232 10.5998C40.6567 9.5777 40.6047 8.49164 41.0646 7.32237C41.6453 5.8501 40.69 4.35864 40.6484 4.29462C40.6172 4.24555 40.5547 4.22635 40.4965 4.24342C40.4403 4.26262 40.4049 4.31596 40.4111 4.37357C40.4132 4.38851 40.588 5.81596 39.2832 7.64456C38.6921 8.47244 38.4778 9.3942 38.4278 10.1837C37.9575 9.62038 37.4143 9.24698 36.7109 8.97813C35.5809 8.54499 34.2802 7.40771 34.2656 7.39705C34.2219 7.36077 34.1594 7.35437 34.1116 7.38211C34.0637 7.40985 34.0387 7.46532 34.0554 7.51867C34.0783 7.59335 34.6402 9.375 35.7265 10.0834C36.3051 10.4611 36.738 11.1289 37.0023 11.6367C36.534 11.7861 35.8535 12.104 35.2999 12.7612C34.5653 13.636 32.2094 14.0308 32.1865 14.0372C32.1283 14.0478 32.0825 14.0948 32.0804 14.1524C32.0783 14.21 32.1179 14.2591 32.1761 14.274C34.3051 14.784 36.9586 13.5571 37.0585 13.508C37.3207 13.4163 37.5184 13.4397 37.6516 13.5827C37.9013 13.8515 37.8826 14.4852 37.612 14.9675C37.1958 15.71 37.123 17.2207 37.3373 17.5173C37.3935 17.5941 37.4622 17.6069 37.5017 17.6069C37.5101 17.6069 37.5163 17.6069 37.5205 17.6069C37.689 17.5898 37.7348 17.4938 37.7889 17.385C37.8659 17.2271 38.0262 16.8963 38.7234 16.2328C39.2853 15.6993 39.5017 15.2 39.5725 14.816C39.8097 15.1339 40.201 15.471 40.8378 15.6652C42.0948 16.0493 42.255 16.4973 42.2571 16.4973C42.2717 16.5507 42.3237 16.587 42.382 16.587C42.3903 16.587 42.3986 16.587 42.409 16.5848C42.4756 16.572 42.5193 16.5101 42.5089 16.4461C42.4964 16.3821 42.2176 14.88 41.458 14.2271C41.3768 14.1567 41.3019 14.0905 41.229 14.0244C41.5849 14.1054 42.0282 14.2143 42.5714 14.37C43.1229 14.5279 43.6785 14.5855 44.1905 14.5855C45.4371 14.5855 46.4256 14.2505 46.4839 14.2313C46.5359 14.2121 46.5713 14.1631 46.5671 14.1097C46.563 14.0564 46.5234 14.0116 46.4693 13.9988" fill="#50B848"/>
<path d="M16.1579 7.35028L19.6167 7.47617V21.5587L25.5021 21.6547L25.7456 7.47617L28.961 7.35028V1.37802L15.9768 1.19238L16.1579 7.35028Z" fill="white"/>
<path d="M61.4203 1.15405L61.6721 8.65619L58.205 1.31622L51.0459 1.15405L51.2519 21.5886L57.7201 21.6548L57.3913 12.8255L61.6721 21.6548L67.7386 21.0317V1.15405H61.4203Z" fill="white"/>
<path d="M70.2253 1.15405L70.4085 21.6548H82.7246L82.6705 15.5012H76.1108L76.1337 13.9713L81.2387 13.8198V8.22092L76.2148 8.12277L76.2335 6.72945L82.4832 6.60356L82.6705 1.15405H70.2253Z" fill="white"/>
<path d="M93.7151 7.52958C93.6735 9.32617 91.249 8.68819 91.249 8.68819L91.1782 6.37097C91.1782 6.37097 93.7567 5.67112 93.7151 7.52745M98.8846 4.67681C96.5787 -0.610541 85.1804 1.31834 85.1804 1.31834L85.4177 21.6569L91.4238 21.4115L91.3218 14.6327L94.5164 21.6569L101.132 21.4115L97.2031 12.706C99.2343 11.0822 100.445 8.25291 98.8867 4.67894" fill="white"/>
<path d="M106.289 4.91152V1.27781L100.855 1.15405V7.06444L103.521 6.97269C103.74 8.07582 102.932 9.00612 102.932 9.00612L103.561 9.77639C105.702 8.68393 106.271 7.02817 106.283 5.24865L106.287 4.91152H106.289Z" fill="white"/>
<path d="M11.2443 8.65612L15.0549 4.35242C15.0549 4.35242 12.8947 1.13904 8.25999 1.00462C3.62324 0.868059 1.77936 3.25782 0.980208 5.34673C0.178975 7.43777 1.14046 10.7514 3.85633 12.3389C7.34637 14.3787 7.67103 14.9399 6.87812 15.5608C6.08522 16.1817 3.83968 13.5082 3.83968 13.5082L0 17.8631C0 17.8631 2.72836 22.3375 8.18923 21.8425C13.6501 21.3475 14.7406 17.7393 14.4513 14.6796C14.16 11.6199 11.7563 10.1262 10.3973 9.42852C9.03833 8.7308 6.83858 7.6234 7.52951 6.91501C7.95406 6.47973 8.75946 6.35384 11.2485 8.65612" fill="white"/>
<path d="M117.919 8.65612L121.729 4.35242C121.729 4.35242 119.569 1.13904 114.934 1.00462C110.3 0.868059 108.454 3.25782 107.655 5.34673C106.853 7.43777 107.815 10.7514 110.531 12.3389C114.021 14.3787 114.345 14.9399 113.552 15.5608C112.76 16.1817 110.514 13.5082 110.514 13.5082L106.674 17.8631C106.674 17.8631 109.403 22.3375 114.864 21.8425C120.324 21.3475 121.415 17.7393 121.126 14.6796C120.834 11.6199 118.431 10.1262 117.072 9.42852C115.713 8.7308 113.513 7.6234 114.204 6.91501C114.628 6.47973 115.434 6.35384 117.923 8.65612" fill="white"/>
</svg>
